X:1
T:His Child Forevermore
T:John Robson Sweney
T:His Child Forevermore
T:Public Domain
T:Public Domain
T:Public Domain
C:John Robson Sweney
Z:Public Domain
%%score ( 1 2 ) ( 3 4 )
L:1/8
M:12/8
K:A
V:1 treble 
V:2 treble 
V:3 bass 
V:4 bass 
V:1
 E ^D2 E | (z2 C C2 C [Cc]2) G F2 C | (z2 B, B,2 B, [B,D]2) D C2 D | (z2 D D2 D [DG]2) F E2 B, | %4
w: 1.~Of Him I|* * * * boast, who shed|* * * * me * His|* * * * cious blood on|
w: 2.~Of Him I|* * * * boast, my Sav-|* * * * dear, * Who|* * * * a- way my|
w: 3.~Of Him I|* * * * boast, my Lord|* * * * king, * Whose|* * * * èd name I|
w: 4.~Of Him I’ll|* * * * boast, while here|* * * * stay, * And|* * * * to realms of|
 (z2 A, A,2 A, [A,C]2) E ^D2 E | (z2 E E2 E [Ec]2) G d2 c | (z2 D D2 D [DF]3) B3 | %7
w: * * * * ry, Who bore|* * * * * cross that|* * * * might|
w: * * * * fear, And bids|* * * * * now by|* * * * draw|
w: * * * * sing; To him|* * * * * lone my|* * * * shall|
w: * * * * day I’ll spread|* * * * * wings and|* * * * a-|
 (B3- [EB-]3 [^DB]2) ^A c2 B | (z2 B, B,2 C [DE]3) ||"^Refrain" [CE]3 | %10
w: His * * child * for-||er-|
w: His * * child * for-||er-|
w: His * * child * for-||er-|
w: His * * child * for-||er-|
 (E2 E E2 E [Ec]2) c ^B2 [Ac] | (G2 G G2 G [Gd]3) E3 | (D2 D D2 D [DB]2) B A2 [EB] | %13
w: more. * * * * * * *|||
w: more. * * * * His child for-|er- * * * * more,|* * * * * cy I a-|
w: more. * * * * * * *|||
w: more. * * * * * * *|||
 (E2 E E2 E [Ec]2) E ^D2 E | (z2 E E2 E [EA]2) c e2 d | (z2 D D2 D [DF]3) [FB]3 | %16
w: |||
w: He * * * * bore the cross|* * * * * I might|* * * * His|
w: |||
w: |||
 (E2 E E2 E [EA]2) G [Ec]2 [DB] | (C2 C D2 D [CA]2) |] %18
w: ||
w: for- * * * * ev- er- more.||
w: ||
w: ||
V:2
 x4 | c3- c3- x6 | D3- D3- x6 | G3 G3- x6 | (C3- C3-) x6 | (c3- c3-) x6 | (F3- F3-) x6 | x12 | %8
w: |for *|pre- *|Cal- va-|the *|I *|be *||
w: |ior *|takes *|guilt and|me *|faith *|near, *||
w: |and *|bless- *|love to|a- *|heart *|cling, *||
w: |I *|then *|end- less|my *|fly *|way, *||
 (E3- E3-) x3 || x3 | c3- c3- x6 | d3- d3- x E3 x2 | B3- B3- x6 | c3- c3- x6 | (A3- A3-) x6 | %15
w: ev- *|||||||
w: ev- *||ev- *|His * mer-|dore; *|that *|be *|
w: ev- *|||||||
w: ev- *|||||||
 F3- F3- x6 | A3- A3- x6 | A3- A3- x2 |] %18
w: |||
w: child *|||
w: |||
w: |||
V:3
 z4 | z2 ([A,,E,] [A,,E,]2 [A,,E,] [A,,E,]2) z4 | z2 ([E,G,] [E,G,]2 [E,G,] [E,G,]2) z4 | %3
w: |~ * * *|~ * * *|
 z2 ([E,B,] [E,B,]2 [E,B,] [E,B,]2) z4 | z2 ([A,,E,] [A,,E,]2 [A,,E,] [A,,E,]2) z4 | %5
w: ~ * * *|~ * * *|
 z2 ([A,,A,] [C,A,]2 [E,A,] A,2) z4 | z2 ([D,A,] [D,A,]2 [D,A,] [D,A,]3) z3 | %7
w: ~ * * *|~ * * *|
 z3 ([B,,G,]3 [B,,F,]2) z4 | z2 ([E,G,] [E,G,]2 [E,A,] [A,,A,]3) || [A,,A,]3 | %10
w: ~ *|His * * *|child|
 [A,,A,]2 [A,,A,] [A,,A,]2 [A,,A,] [A,,A,]2 z3 A, | [E,B,]2 [E,B,] [E,B,]2 [E,B,] [E,B,]3 [E,G,]3 | %12
w: for- ev- er- more, His child|ev- er- more, His mer- cy|
 [E,G,]2 [E,G,] [E,G,]2 [E,G,] [E,G,]2 z z2 [E,G,] | A,2 A, A,2 A, A,2 z4 | %14
w: I a- dore, His mer- cy|I a- dore; He bore|
 z2 [A,C] [A,C]2 [A,C] [A,C]2 z4 | z2 [D,A,] [D,A,]2 [D,A,] [D,A,]3 [D,D]3 | %16
w: be His child for-|ev- er- more, His child|
 [E,C]2 [E,C] [E,C]2 [E,C] [E,C]2 z ([E,A,]2 [E,G,]) | [A,,A,]2 [A,,E,] [D,F,]2 [D,F,] [A,,E,]2 |] %18
w: for- ev- er- more, * * *||
V:4
 x4 | x12 | x12 | x12 | x12 | x6 A,2 x4 | x12 | x12 | x9 || x3 | x11 A, | x12 | x12 | %13
w: |||||~|||||for-|||
 A,2 A, A,2 A, A,2 x4 | x12 | x12 | x12 | x8 |] %18
w: the cross that I might|||||

